blockchains/ethereum/assets/0x42476F744292107e34519F9c357927074Ea3F75D/logo.svg

<svg fill="none" height="250" viewBox="0 0 250 250" width="250" xmlns="http://www.w3.org/2000/svg" xmlns:xlink="http://www.w3.org/1999/xlink"><clipPath id="a"><path d="m0 0h250v250h-250z"/></clipPath><g clip-path="url(#a)"><circle cx="125" cy="125" fill="#fff" r="125"/><g clip-rule="evenodd" fill-rule="evenodd"><path d="m133.311 151.24 13.642 7.782 55.326-40.914c8.116-6.002 12.87-15.404 13.043-25.7936.173-10.3889-4.265-19.9572-12.175-26.2485l-30.665-24.3979-37.142 26.6917 12.26 8.8928 24.465-17.5823 22.63 18.004c4.335 3.4493 6.768 8.692 6.672 14.3864-.094 5.6945-2.699 10.8474-7.148 14.1374z" fill="#038199"/><path d="m117.483 98.8991-12.98-8.3757-56.75 40.7866c-8.322 5.982-13.3247 15.855-13.3851 26.413-.0583 10.557 4.8345 20.49 13.0894 26.574l32.7166 24.109 37.3091-27.59-13.364-7.988-23.9588 17.719-24.6625-18.175c-4.5911-3.384-7.2066-8.692-7.1737-14.565.0328-5.872 2.7067-11.15 7.3362-14.476z" fill="#018294"/><g fill="#4dbec8"><path d="m55.4753 106.198c-4.4483-3.29-7.0542-8.4429-7.1482-14.1374-.0954-5.6944 2.3371-10.9371 6.6727-14.3864l22.6289-18.004 91.0353 65.4268 12.141-8.979-103.5912-74.45-30.6666 24.3979c-7.9099 6.2913-12.3472 15.8596-12.1747 26.2485.1734 10.3896 4.927 19.7916 13.0428 25.7936l9.2187 6.817 12.2555-8.808z"/><path d="m201.94 131.308-8.88-6.382-12.142 8.978 13.114 9.425c4.63 3.328 7.304 8.604 7.338 14.476.033 5.873-2.582 11.181-7.174 14.565l-24.662 18.175-88.5046-65.449-12.2555 8.807 100.7461 74.502 32.717-24.11c8.255-6.084 13.147-16.017 13.088-26.574-.059-10.558-5.064-20.431-13.385-26.413z"/></g></g></g></svg>

<svg width="250" height="250" viewBox="0 0 250 250" fill="none" xmlns="http://www.w3.org/2000/svg">
<g clip-path="url(#clip0_37_33832)">
<circle cx="125" cy="125" r="125" fill="white"/>
<path fill-rule="evenodd" clip-rule="evenodd" d="M133.311 151.24L146.953 159.022L202.279 118.108C210.395 112.106 215.149 102.704 215.322 92.3144C215.495 81.9255 211.057 72.3572 203.147 66.0659L172.482 41.668L135.34 68.3597L147.6 77.2525L172.065 59.6702L194.695 77.6742C199.03 81.1235 201.463 86.3662 201.367 92.0606C201.273 97.7551 198.668 102.908 194.219 106.198L133.311 151.24Z" fill="#038199"/>
<path fill-rule="evenodd" clip-rule="evenodd" d="M117.483 98.8991L104.503 90.5234L47.753 131.31C39.431 137.292 34.4283 147.165 34.3679 157.723C34.3096 168.28 39.2024 178.213 47.4573 184.297L80.1739 208.406L117.483 180.816L104.119 172.828L80.1602 190.547L55.4977 172.372C50.9066 168.988 48.2911 163.68 48.324 157.807C48.3568 151.935 51.0307 146.657 55.6602 143.331L117.483 98.8991Z" fill="#018294"/>
<path fill-rule="evenodd" clip-rule="evenodd" d="M55.4753 106.198C51.027 102.908 48.4211 97.7551 48.3271 92.0606C48.2317 86.3662 50.6642 81.1235 54.9998 77.6742L77.6287 59.6702L168.664 125.097L180.805 116.118L77.2138 41.668L46.5472 66.0659C38.6373 72.3572 34.2 81.9255 34.3725 92.3144C34.5459 102.704 39.2995 112.106 47.4153 118.108L56.634 124.925L68.8895 116.117L55.4753 106.198Z" fill="#4DBEC8"/>
<path fill-rule="evenodd" clip-rule="evenodd" d="M201.94 131.308L193.06 124.926L180.918 133.904L194.032 143.329C198.662 146.657 201.336 151.933 201.37 157.805C201.403 163.678 198.788 168.986 194.196 172.37L169.534 190.545L81.0294 125.096L68.7739 133.903L169.52 208.405L202.237 184.295C210.492 178.211 215.384 168.278 215.325 157.721C215.266 147.163 210.261 137.29 201.94 131.308Z" fill="#4DBEC8"/>
</g>
<defs>
<clipPath id="clip0_37_33832">
<rect width="250" height="250" fill="white"/>
</clipPath>
</defs>
</svg>
